docs/img/icons/hero/fire.svg

<svg width="52" height="52" viewBox="0 0 52 52" fill="none" xmlns="http://www.w3.org/2000/svg">
<path fill-rule="evenodd" clip-rule="evenodd" d="M38.0515 13.3725C42.9995 16.5993 47.1087 18.8228 48.5879 25.0244C50.8897 34.6748 42.9299 44.91 30.8122 47.9564C30.7213 47.9803 30.6301 48.0033 30.5382 48.0254C30.4464 48.0476 30.3547 48.0687 30.263 48.0889C18.0894 50.9011 6.37856 45.4101 4.07676 35.7596C3.71168 34.229 3.59785 32.6469 3.73863 31.0569L3.99473 28.1643C5.58742 28.7104 7.28607 29.1113 9.09068 29.3668C10.8953 29.6223 11.9408 29.5597 12.2271 29.1789C11.7956 25.7088 11.5168 22.8108 11.3907 20.485C10.9747 12.8148 15.6713 7.20473 25.4804 3.65479L25.2668 5.85004C24.7633 11.0235 25.8326 14.0526 26.8181 15.6829C27.8747 17.4307 29.8703 18.8649 31.4178 18.8012C34.8712 18.659 36.3904 16.3982 35.9754 12.0186L38.0515 13.3725Z" stroke="#00C35B" stroke-width="6" stroke-linecap="round" stroke-linejoin="round"/>
<path fill-rule="evenodd" clip-rule="evenodd" d="M24.7705 32.1784C21.275 36.1399 21.1707 39.472 24.4574 42.1745C26.8201 44.1171 31.1056 43.9711 34.0363 41.849C34.0585 41.8332 34.0806 41.8172 34.1026 41.801C34.1245 41.7848 34.1461 41.7685 34.1675 41.7519C37.0407 39.5826 37.4608 36.2582 35.0923 34.3108C34.0777 33.4765 30.6371 32.7657 24.7705 32.1784Z" stroke="#00C35B" stroke-width="6" stroke-linecap="round" stroke-linejoin="round"/>
</svg>

<svg width="52" height="52" fill="none" xmlns="http://www.w3.org/2000/svg"><path clip-rule="evenodd" d="M38.051 13.373c4.948 3.226 9.058 5.45 10.537 11.651 2.302 9.65-5.658 19.886-17.776 22.932a13.375 13.375 0 01-.549.133C18.089 50.9 6.379 45.41 4.077 35.759a14.658 14.658 0 01-.338-4.702l.256-2.893c1.592.546 3.291.947 5.096 1.203 1.804.255 2.85.193 3.136-.188-.431-3.47-.71-6.368-.836-8.694-.416-7.67 4.28-13.28 14.09-16.83l-.214 2.195c-.504 5.174.566 8.203 1.551 9.833 1.057 1.748 3.052 3.182 4.6 3.118 3.453-.142 4.972-2.403 4.557-6.782l2.076 1.354z" stroke="#00C35B" stroke-width="6" stroke-linecap="round" stroke-linejoin="round"/><path clip-rule="evenodd" d="M24.77 32.178c-3.495 3.962-3.6 7.294-.313 9.997 2.363 1.942 6.649 1.796 9.58-.326a5.06 5.06 0 00.13-.097c2.874-2.17 3.294-5.494.925-7.441-1.014-.834-4.455-1.545-10.322-2.133z" stroke="#00C35B" stroke-width="6" stroke-linecap="round" stroke-linejoin="round"/></svg>
